assets/1. F-P/Mouth/Color/Mouth-color.svg

<svg width="100%" height="100%" viewBox="0 0 32 32" fill="none" xmlns="http://www.w3.org/2000/svg">
<path d="M16.513 9.73322C16.2375 9.96329 15.8113 9.96329 15.5358 9.73322C14.6343 8.98019 12.9775 8 11.2571 8C9.13987 8 7.96404 9.30851 6.79612 10.6172C5.9346 11.5825 3.58089 15.1112 2.40523 16.8962C1.97559 17.5485 1.91823 18.3776 2.32135 19.0466C3.27634 20.6315 5.09079 23.1204 7.54612 24.9453C10.9853 27.5014 14.3092 27.9072 15.9875 27.914C15.9946 27.914 16.0018 27.9141 16.009 27.914C16.0162 27.9141 16.0234 27.9141 16.0305 27.9141C17.7093 27.9073 21.0635 27.5014 24.5027 24.9453C26.958 23.1204 28.7725 20.6315 29.7274 19.0466C30.1306 18.3776 30.0732 17.5485 29.6436 16.8962C28.4679 15.1112 26.1142 11.5825 25.2527 10.6172C24.0848 9.30851 22.9089 8 20.7917 8C19.0713 8 17.4145 8.98019 16.513 9.73322Z" fill="#FF4860"/>
<path d="M16.513 9.73322C16.2375 9.96329 15.8113 9.96329 15.5358 9.73322C14.6343 8.98019 12.9775 8 11.2571 8C9.13987 8 7.96404 9.30851 6.79612 10.6172C5.9346 11.5825 3.58089 15.1112 2.40523 16.8962C1.97559 17.5485 1.91823 18.3776 2.32135 19.0466C3.27634 20.6315 5.09079 23.1204 7.54612 24.9453C10.9853 27.5014 14.3092 27.9072 15.9875 27.914C15.9946 27.914 16.0018 27.9141 16.009 27.914C16.0162 27.9141 16.0234 27.9141 16.0305 27.9141C17.7093 27.9073 21.0635 27.5014 24.5027 24.9453C26.958 23.1204 28.7725 20.6315 29.7274 19.0466C30.1306 18.3776 30.0732 17.5485 29.6436 16.8962C28.4679 15.1112 26.1142 11.5825 25.2527 10.6172C24.0848 9.30851 22.9089 8 20.7917 8C19.0713 8 17.4145 8.98019 16.513 9.73322Z" fill="url(#paint0_linear_20020_5187)"/>
<path d="M16.513 9.73322C16.2375 9.96329 15.8113 9.96329 15.5358 9.73322C14.6343 8.98019 12.9775 8 11.2571 8C9.13987 8 7.96404 9.30851 6.79612 10.6172C5.9346 11.5825 3.58089 15.1112 2.40523 16.8962C1.97559 17.5485 1.91823 18.3776 2.32135 19.0466C3.27634 20.6315 5.09079 23.1204 7.54612 24.9453C10.9853 27.5014 14.3092 27.9072 15.9875 27.914C15.9946 27.914 16.0018 27.9141 16.009 27.914C16.0162 27.9141 16.0234 27.9141 16.0305 27.9141C17.7093 27.9073 21.0635 27.5014 24.5027 24.9453C26.958 23.1204 28.7725 20.6315 29.7274 19.0466C30.1306 18.3776 30.0732 17.5485 29.6436 16.8962C28.4679 15.1112 26.1142 11.5825 25.2527 10.6172C24.0848 9.30851 22.9089 8 20.7917 8C19.0713 8 17.4145 8.98019 16.513 9.73322Z" fill="url(#paint1_radial_20020_5187)"/>
<path d="M16.513 9.73322C16.2375 9.96329 15.8113 9.96329 15.5358 9.73322C14.6343 8.98019 12.9775 8 11.2571 8C9.13987 8 7.96404 9.30851 6.79612 10.6172C5.9346 11.5825 3.58089 15.1112 2.40523 16.8962C1.97559 17.5485 1.91823 18.3776 2.32135 19.0466C3.27634 20.6315 5.09079 23.1204 7.54612 24.9453C10.9853 27.5014 14.3092 27.9072 15.9875 27.914C15.9946 27.914 16.0018 27.9141 16.009 27.914C16.0162 27.9141 16.0234 27.9141 16.0305 27.9141C17.7093 27.9073 21.0635 27.5014 24.5027 24.9453C26.958 23.1204 28.7725 20.6315 29.7274 19.0466C30.1306 18.3776 30.0732 17.5485 29.6436 16.8962C28.4679 15.1112 26.1142 11.5825 25.2527 10.6172C24.0848 9.30851 22.9089 8 20.7917 8C19.0713 8 17.4145 8.98019 16.513 9.73322Z" fill="url(#paint2_radial_20020_5187)"/>
<path d="M16.513 9.73322C16.2375 9.96329 15.8113 9.96329 15.5358 9.73322C14.6343 8.98019 12.9775 8 11.2571 8C9.13987 8 7.96404 9.30851 6.79612 10.6172C5.9346 11.5825 3.58089 15.1112 2.40523 16.8962C1.97559 17.5485 1.91823 18.3776 2.32135 19.0466C3.27634 20.6315 5.09079 23.1204 7.54612 24.9453C10.9853 27.5014 14.3092 27.9072 15.9875 27.914C15.9946 27.914 16.0018 27.9141 16.009 27.914C16.0162 27.9141 16.0234 27.9141 16.0305 27.9141C17.7093 27.9073 21.0635 27.5014 24.5027 24.9453C26.958 23.1204 28.7725 20.6315 29.7274 19.0466C30.1306 18.3776 30.0732 17.5485 29.6436 16.8962C28.4679 15.1112 26.1142 11.5825 25.2527 10.6172C24.0848 9.30851 22.9089 8 20.7917 8C19.0713 8 17.4145 8.98019 16.513 9.73322Z" fill="url(#paint3_radial_20020_5187)"/>
<path d="M16.513 9.73322C16.2375 9.96329 15.8113 9.96329 15.5358 9.73322C14.6343 8.98019 12.9775 8 11.2571 8C9.13987 8 7.96404 9.30851 6.79612 10.6172C5.9346 11.5825 3.58089 15.1112 2.40523 16.8962C1.97559 17.5485 1.91823 18.3776 2.32135 19.0466C3.27634 20.6315 5.09079 23.1204 7.54612 24.9453C10.9853 27.5014 14.3092 27.9072 15.9875 27.914C15.9946 27.914 16.0018 27.9141 16.009 27.914C16.0162 27.9141 16.0234 27.9141 16.0305 27.9141C17.7093 27.9073 21.0635 27.5014 24.5027 24.9453C26.958 23.1204 28.7725 20.6315 29.7274 19.0466C30.1306 18.3776 30.0732 17.5485 29.6436 16.8962C28.4679 15.1112 26.1142 11.5825 25.2527 10.6172C24.0848 9.30851 22.9089 8 20.7917 8C19.0713 8 17.4145 8.98019 16.513 9.73322Z" fill="url(#paint4_radial_20020_5187)"/>
<path d="M16.513 9.73322C16.2375 9.96329 15.8113 9.96329 15.5358 9.73322C14.6343 8.98019 12.9775 8 11.2571 8C9.13987 8 7.96404 9.30851 6.79612 10.6172C5.9346 11.5825 3.58089 15.1112 2.40523 16.8962C1.97559 17.5485 1.91823 18.3776 2.32135 19.0466C3.27634 20.6315 5.09079 23.1204 7.54612 24.9453C10.9853 27.5014 14.3092 27.9072 15.9875 27.914C15.9946 27.914 16.0018 27.9141 16.009 27.914C16.0162 27.9141 16.0234 27.9141 16.0305 27.9141C17.7093 27.9073 21.0635 27.5014 24.5027 24.9453C26.958 23.1204 28.7725 20.6315 29.7274 19.0466C30.1306 18.3776 30.0732 17.5485 29.6436 16.8962C28.4679 15.1112 26.1142 11.5825 25.2527 10.6172C24.0848 9.30851 22.9089 8 20.7917 8C19.0713 8 17.4145 8.98019 16.513 9.73322Z" fill="url(#paint5_radial_20020_5187)"/>
<path d="M5.13657 17.5434C4.80068 17.6743 4.46616 17.8047 4.12811 17.9323C6.45233 19.0703 9.86373 20.5546 15.7753 20.5546C21.6869 20.5546 23.9836 19.6484 27.9289 17.9323C27.6444 17.8262 27.3704 17.7232 27.1049 17.6235C23.3382 16.2084 21.2977 15.4418 15.7753 15.4418C10.5281 15.4418 7.7893 16.5093 5.13657 17.5434Z" fill="url(#paint6_radial_20020_5187)"/>
<g filter="url(#filter0_i_20020_5187)">
<path d="M24.2746 16.6036C21.9488 15.844 19.7755 15.4418 15.7753 15.4418C12.1912 15.4418 9.77736 15.9399 7.7619 16.5852L7.78796 16.6541C7.97152 17.14 8.3922 17.4972 8.90652 17.5698C10.2627 17.7612 12.7099 17.9982 15.7707 17.9982C19.0687 17.9982 21.6964 17.7546 23.1249 17.5619C23.6347 17.4931 24.0567 17.1463 24.2484 16.669L24.2746 16.6036Z" fill="url(#paint7_linear_20020_5187)"/>
<path d="M24.2746 16.6036C21.9488 15.844 19.7755 15.4418 15.7753 15.4418C12.1912 15.4418 9.77736 15.9399 7.7619 16.5852L7.78796 16.6541C7.97152 17.14 8.3922 17.4972 8.90652 17.5698C10.2627 17.7612 12.7099 17.9982 15.7707 17.9982C19.0687 17.9982 21.6964 17.7546 23.1249 17.5619C23.6347 17.4931 24.0567 17.1463 24.2484 16.669L24.2746 16.6036Z" fill="url(#paint8_radial_20020_5187)"/>
</g>
<g filter="url(#filter1_f_20020_5187)">
<path d="M18.4653 12.9126C21.5613 13.5731 26.3497 15.6783 28.6614 17.5359C26.746 13.8042 22.3456 10.9312 20.9008 10.1056L18.4653 12.9126Z" fill="url(#paint9_linear_20020_5187)"/>
</g>
<defs>
<filter id="filter0_i_20020_5187" x="7.7619" y="15.3418" width="16.5127" height="2.6564" filterUnits="userSpaceOnUse" color-interpolation-filters="sRGB">
<feFlood flood-opacity="0" result="BackgroundImageFix"/>
<feBlend mode="normal" in="SourceGraphic" in2="BackgroundImageFix" result="shape"/>
<feColorMatrix in="SourceAlpha" type="matrix" values="0 0 0 0 0 0 0 0 0 0 0 0 0 0 0 0 0 0 127 0" result="hardAlpha"/>
<feOffset dy="-0.1"/>
<feGaussianBlur stdDeviation="0.15"/>
<feComposite in2="hardAlpha" operator="arithmetic" k2="-1" k3="1"/>
<feColorMatrix type="matrix" values="0 0 0 0 0.560784 0 0 0 0 0.384314 0 0 0 0 0.576471 0 0 0 1 0"/>
<feBlend mode="normal" in2="shape" result="effect1_innerShadow_20020_5187"/>
</filter>
<filter id="filter1_f_20020_5187" x="17.4653" y="9.10559" width="12.196" height="9.4303" filterUnits="userSpaceOnUse" color-interpolation-filters="sRGB">
<feFlood flood-opacity="0" result="BackgroundImageFix"/>
<feBlend mode="normal" in="SourceGraphic" in2="BackgroundImageFix" result="shape"/>
<feGaussianBlur stdDeviation="0.5" result="effect1_foregroundBlur_20020_5187"/>
</filter>
<linearGradient id="paint0_linear_20020_5187" x1="30" y1="17.957" x2="17.955" y2="17.957" gradientUnits="userSpaceOnUse">
<stop stop-color="#FF58AD"/>
<stop offset="1" stop-color="#FF58AD" stop-opacity="0"/>
</linearGradient>
<radialGradient id="paint1_radial_20020_5187" cx="0" cy="0" r="1" gradientUnits="userSpaceOnUse" gradientTransform="translate(16.0244 11.4637) rotate(90) scale(16.4503 15.9097)">
<stop offset="0.909605" stop-color="#FF92C0" stop-opacity="0"/>
<stop offset="1" stop-color="#FF92C0"/>
</radialGradient>
<radialGradient id="paint2_radial_20020_5187" cx="0" cy="0" r="1" gradientUnits="userSpaceOnUse" gradientTransform="translate(24.3378 19.0964) rotate(144.782) scale(6.03718 3.13571)">
<stop stop-color="#FF6099"/>
<stop offset="1" stop-color="#FF6099" stop-opacity="0"/>
</radialGradient>
<radialGradient id="paint3_radial_20020_5187" cx="0" cy="0" r="1" gradientUnits="userSpaceOnUse" gradientTransform="translate(16.7805 8) rotate(65.7387) scale(4.25896 3.05686)">
<stop stop-color="#A7464A"/>
<stop offset="1" stop-color="#A7464A" stop-opacity="0"/>
</radialGradient>
<radialGradient id="paint4_radial_20020_5187" cx="0" cy="0" r="1" gradientUnits="userSpaceOnUse" gradientTransform="translate(4.34761 13.862) rotate(-45.7283) scale(13.7784 5.48947)">
<stop offset="0.326622" stop-color="#B34146"/>
<stop offset="1" stop-color="#B34146" stop-opacity="0"/>
</radialGradient>
<radialGradient id="paint5_radial_20020_5187" cx="0" cy="0" r="1" gradientUnits="userSpaceOnUse" gradientTransform="translate(16.0244 9.63281) rotate(89.9999) scale(1.25 0.822064)">
<stop stop-color="#EE7278"/>
<stop offset="1" stop-color="#EE7278" stop-opacity="0"/>
</radialGradient>
<radialGradient id="paint6_radial_20020_5187" cx="0" cy="0" r="1" gradientUnits="userSpaceOnUse" gradientTransform="translate(16.0285 19.9765) rotate(-90) scale(4.53474 22.2832)">
<stop stop-color="#9A018C"/>
<stop offset="1" stop-color="#730097"/>
</radialGradient>
<linearGradient id="paint7_linear_20020_5187" x1="20.8347" y1="17.123" x2="7.9885" y2="17.123" gradientUnits="userSpaceOnUse">
<stop stop-color="#ECDDF6"/>
<stop offset="1" stop-color="#DAC6E4"/>
</linearGradient>
<radialGradient id="paint8_radial_20020_5187" cx="0" cy="0" r="1" gradientUnits="userSpaceOnUse" gradientTransform="translate(16.0182 17.6184) rotate(-90) scale(3.13725 11.025)">
<stop offset="0.544445" stop-color="#835F98" stop-opacity="0"/>
<stop offset="0.915789" stop-color="#835F98"/>
</radialGradient>
<linearGradient id="paint9_linear_20020_5187" x1="26.9689" y1="15.5958" x2="18.1351" y2="11.2201" gradientUnits="userSpaceOnUse">
<stop stop-color="#FF76B3"/>
<stop offset="1" stop-color="#FF6796" stop-opacity="0"/>
<stop offset="1" stop-color="#FFA5C1" stop-opacity="0"/>
</linearGradient>
</defs>
</svg>

<svg width="100%" height="100%" viewBox="0 0 32 32" xmlns="http://www.w3.org/2000/svg"><path fill="#FF4860" d="M16.513 9.733a.78.78 0 0 1-.977 0C14.634 8.98 12.977 8 11.257 8c-2.117 0-3.293 1.309-4.46 2.617-.862.965-3.216 4.494-4.392 6.28-.43.652-.487 1.48-.084 2.15.955 1.584 2.77 4.073 5.225 5.898 3.44 2.556 6.763 2.962 8.442 2.969h.042c1.68-.007 5.034-.413 8.473-2.969 2.455-1.825 4.27-4.314 5.224-5.898.404-.67.346-1.498-.083-2.15-1.176-1.786-3.53-5.314-4.391-6.28C24.085 9.31 22.909 8 20.792 8c-1.72 0-3.378.98-4.279 1.733"/><path fill="url(#a)" d="M16.513 9.733a.78.78 0 0 1-.977 0C14.634 8.98 12.977 8 11.257 8c-2.117 0-3.293 1.309-4.46 2.617-.862.965-3.216 4.494-4.392 6.28-.43.652-.487 1.48-.084 2.15.955 1.584 2.77 4.073 5.225 5.898 3.44 2.556 6.763 2.962 8.442 2.969h.042c1.68-.007 5.034-.413 8.473-2.969 2.455-1.825 4.27-4.314 5.224-5.898.404-.67.346-1.498-.083-2.15-1.176-1.786-3.53-5.314-4.391-6.28C24.085 9.31 22.909 8 20.792 8c-1.72 0-3.378.98-4.279 1.733"/><path fill="url(#b)" d="M16.513 9.733a.78.78 0 0 1-.977 0C14.634 8.98 12.977 8 11.257 8c-2.117 0-3.293 1.309-4.46 2.617-.862.965-3.216 4.494-4.392 6.28-.43.652-.487 1.48-.084 2.15.955 1.584 2.77 4.073 5.225 5.898 3.44 2.556 6.763 2.962 8.442 2.969h.042c1.68-.007 5.034-.413 8.473-2.969 2.455-1.825 4.27-4.314 5.224-5.898.404-.67.346-1.498-.083-2.15-1.176-1.786-3.53-5.314-4.391-6.28C24.085 9.31 22.909 8 20.792 8c-1.72 0-3.378.98-4.279 1.733"/><path fill="url(#c)" d="M16.513 9.733a.78.78 0 0 1-.977 0C14.634 8.98 12.977 8 11.257 8c-2.117 0-3.293 1.309-4.46 2.617-.862.965-3.216 4.494-4.392 6.28-.43.652-.487 1.48-.084 2.15.955 1.584 2.77 4.073 5.225 5.898 3.44 2.556 6.763 2.962 8.442 2.969h.042c1.68-.007 5.034-.413 8.473-2.969 2.455-1.825 4.27-4.314 5.224-5.898.404-.67.346-1.498-.083-2.15-1.176-1.786-3.53-5.314-4.391-6.28C24.085 9.31 22.909 8 20.792 8c-1.72 0-3.378.98-4.279 1.733"/><path fill="url(#d)" d="M16.513 9.733a.78.78 0 0 1-.977 0C14.634 8.98 12.977 8 11.257 8c-2.117 0-3.293 1.309-4.46 2.617-.862.965-3.216 4.494-4.392 6.28-.43.652-.487 1.48-.084 2.15.955 1.584 2.77 4.073 5.225 5.898 3.44 2.556 6.763 2.962 8.442 2.969h.042c1.68-.007 5.034-.413 8.473-2.969 2.455-1.825 4.27-4.314 5.224-5.898.404-.67.346-1.498-.083-2.15-1.176-1.786-3.53-5.314-4.391-6.28C24.085 9.31 22.909 8 20.792 8c-1.72 0-3.378.98-4.279 1.733"/><path fill="url(#e)" d="M16.513 9.733a.78.78 0 0 1-.977 0C14.634 8.98 12.977 8 11.257 8c-2.117 0-3.293 1.309-4.46 2.617-.862.965-3.216 4.494-4.392 6.28-.43.652-.487 1.48-.084 2.15.955 1.584 2.77 4.073 5.225 5.898 3.44 2.556 6.763 2.962 8.442 2.969h.042c1.68-.007 5.034-.413 8.473-2.969 2.455-1.825 4.27-4.314 5.224-5.898.404-.67.346-1.498-.083-2.15-1.176-1.786-3.53-5.314-4.391-6.28C24.085 9.31 22.909 8 20.792 8c-1.72 0-3.378.98-4.279 1.733"/><path fill="url(#f)" d="M16.513 9.733a.78.78 0 0 1-.977 0C14.634 8.98 12.977 8 11.257 8c-2.117 0-3.293 1.309-4.46 2.617-.862.965-3.216 4.494-4.392 6.28-.43.652-.487 1.48-.084 2.15.955 1.584 2.77 4.073 5.225 5.898 3.44 2.556 6.763 2.962 8.442 2.969h.042c1.68-.007 5.034-.413 8.473-2.969 2.455-1.825 4.27-4.314 5.224-5.898.404-.67.346-1.498-.083-2.15-1.176-1.786-3.53-5.314-4.391-6.28C24.085 9.31 22.909 8 20.792 8c-1.72 0-3.378.98-4.279 1.733"/><path fill="url(#g)" d="M5.137 17.543q-.502.197-1.009.39c2.324 1.137 5.736 2.622 11.647 2.622s8.209-.907 12.154-2.623l-.824-.308c-3.767-1.416-5.807-2.182-11.33-2.182-5.247 0-7.986 1.067-10.638 2.101"/><g filter="url(#h)"><path fill="url(#i)" d="M24.275 16.604c-2.326-.76-4.5-1.162-8.5-1.162-3.584 0-5.998.498-8.013 1.143l.026.07c.184.485.604.842 1.119.915 1.356.191 3.803.428 6.864.428 3.298 0 5.925-.243 7.354-.436.51-.069.932-.416 1.123-.893z"/><path fill="url(#j)" d="M24.275 16.604c-2.326-.76-4.5-1.162-8.5-1.162-3.584 0-5.998.498-8.013 1.143l.026.07c.184.485.604.842 1.119.915 1.356.191 3.803.428 6.864.428 3.298 0 5.925-.243 7.354-.436.51-.069.932-.416 1.123-.893z"/></g><g filter="url(#k)"><path fill="url(#l)" d="M18.465 12.913c3.096.66 7.885 2.765 10.196 4.623-1.915-3.732-6.315-6.605-7.76-7.43z"/></g><defs><radialGradient id="b" cx="0" cy="0" r="1" gradientTransform="matrix(0 16.4503 -15.9097 0 16.024 11.464)" gradientUnits="userSpaceOnUse"><stop offset=".91" stop-color="#FF92C0" stop-opacity="0"/><stop offset="1" stop-color="#FF92C0"/></radialGradient><radialGradient id="c" cx="0" cy="0" r="1" gradientTransform="matrix(-4.93216 3.48158 -1.80833 -2.56176 24.338 19.096)" gradientUnits="userSpaceOnUse"><stop stop-color="#FF6099"/><stop offset="1" stop-color="#FF6099" stop-opacity="0"/></radialGradient><radialGradient id="d" cx="0" cy="0" r="1" gradientTransform="matrix(1.75 3.88281 -2.78688 1.25606 16.78 8)" gradientUnits="userSpaceOnUse"><stop stop-color="#A7464A"/><stop offset="1" stop-color="#A7464A" stop-opacity="0"/></radialGradient><radialGradient id="e" cx="0" cy="0" r="1" gradientTransform="matrix(9.61817 -9.86585 3.93067 3.83199 4.348 13.862)" gradientUnits="userSpaceOnUse"><stop offset=".327" stop-color="#B34146"/><stop offset="1" stop-color="#B34146" stop-opacity="0"/></radialGradient><radialGradient id="f" cx="0" cy="0" r="1" gradientTransform="matrix(0 1.25 -.82206 0 16.024 9.633)" gradientUnits="userSpaceOnUse"><stop stop-color="#EE7278"/><stop offset="1" stop-color="#EE7278" stop-opacity="0"/></radialGradient><radialGradient id="g" cx="0" cy="0" r="1" gradientTransform="matrix(0 -4.53474 22.2832 0 16.029 19.977)" gradientUnits="userSpaceOnUse"><stop stop-color="#9A018C"/><stop offset="1" stop-color="#730097"/></radialGradient><radialGradient id="j" cx="0" cy="0" r="1" gradientTransform="matrix(0 -3.13725 11.025 0 16.018 17.618)" gradientUnits="userSpaceOnUse"><stop offset=".544" stop-color="#835F98" stop-opacity="0"/><stop offset=".916" stop-color="#835F98"/></radialGradient><linearGradient id="a" x1="30" x2="17.955" y1="17.957" y2="17.957" gradientUnits="userSpaceOnUse"><stop stop-color="#FF58AD"/><stop offset="1" stop-color="#FF58AD" stop-opacity="0"/></linearGradient><linearGradient id="i" x1="20.835" x2="7.989" y1="17.123" y2="17.123" gradientUnits="userSpaceOnUse"><stop stop-color="#ECDDF6"/><stop offset="1" stop-color="#DAC6E4"/></linearGradient><linearGradient id="l" x1="26.969" x2="18.135" y1="15.596" y2="11.22" gradientUnits="userSpaceOnUse"><stop stop-color="#FF76B3"/><stop offset="1" stop-color="#FF6796" stop-opacity="0"/><stop offset="1" stop-color="#FFA5C1" stop-opacity="0"/></linearGradient><filter id="h" width="16.513" height="2.656" x="7.762" y="15.342" color-interpolation-filters="sRGB" filterUnits="userSpaceOnUse"><feFlood flood-opacity="0" result="BackgroundImageFix"/><feBlend in="SourceGraphic" in2="BackgroundImageFix" result="shape"/><feColorMatrix in="SourceAlpha" result="hardAlpha" values="0 0 0 0 0 0 0 0 0 0 0 0 0 0 0 0 0 0 127 0"/><feOffset dy="-.1"/><feGaussianBlur stdDeviation=".15"/><feComposite in2="hardAlpha" k2="-1" k3="1" operator="arithmetic"/><feColorMatrix values="0 0 0 0 0.560784 0 0 0 0 0.384314 0 0 0 0 0.576471 0 0 0 1 0"/><feBlend in2="shape" result="effect1_innerShadow_20020_5187"/></filter><filter id="k" width="12.196" height="9.43" x="17.465" y="9.106" color-interpolation-filters="sRGB" filterUnits="userSpaceOnUse"><feFlood flood-opacity="0" result="BackgroundImageFix"/><feBlend in="SourceGraphic" in2="BackgroundImageFix" result="shape"/><feGaussianBlur result="effect1_foregroundBlur_20020_5187" stdDeviation=".5"/></filter></defs></svg>
